packages/icons/raw/imported/TravelLuggage.svg

<svg width="32" height="32" viewBox="0 0 32 32" fill="none" xmlns="http://www.w3.org/2000/svg">
<path d="M9 14.5V9.5M9 25.5V22.5M23 9.5V25.5M12.5 9.5V7.5C12.5 7.23478 12.6264 6.98043 12.8515 6.79289C13.0765 6.60536 13.3817 6.5 13.7 6.5H18.3C18.6183 6.5 18.9235 6.60536 19.1485 6.79289C19.3736 6.98043 19.5 7.23478 19.5 7.5V9.5M6.63636 9.5H25.3636C26.2674 9.5 27 10.2195 27 11.1071V23.8929C27 24.7805 26.2674 25.5 25.3636 25.5H6.63636C5.73263 25.5 5 24.7805 5 23.8929V11.1071C5 10.2195 5.73263 9.5 6.63636 9.5ZM7.26611 15.8962L12.2746 17.7988L11.0864 20.9266L7.07797 19.0241L7.26611 15.8962ZM18 17L14 15.5179L17.0469 12L18 17ZM20 21C20 21.8284 19.3284 22.5 18.5 22.5C17.6716 22.5 17 21.8284 17 21C17 20.1716 17.6716 19.5 18.5 19.5C19.3284 19.5 20 20.1716 20 21Z" stroke="black" stroke-linecap="round" stroke-linejoin="round"/>
</svg>

<svg width="32" height="32" fill="none" xmlns="http://www.w3.org/2000/svg"><path d="M9 14.5v-5m0 16v-3m14-13v16m-10.5-16v-2c0-.265.126-.52.351-.707.225-.188.53-.293.849-.293h4.6c.318 0 .623.105.848.293a.924.924 0 0 1 .352.707v2m-12.864 0h18.728c.903 0 1.636.72 1.636 1.607v12.786c0 .887-.733 1.607-1.636 1.607H6.636C5.733 25.5 5 24.78 5 23.893V11.107C5 10.22 5.733 9.5 6.636 9.5Zm.63 6.396 5.009 1.903-1.189 3.128-4.008-1.903.188-3.128ZM18 17l-4-1.482L17.047 12 18 17Zm2 4a1.5 1.5 0 1 1-3 0 1.5 1.5 0 0 1 3 0Z" stroke="#000" stroke-linecap="round" stroke-linejoin="round"/></svg>
